X:77
T:Petronella
C:From Lissa Schneckenburger
S:https://www.youtube.com/watch?v=T-u2HD8tUqc
Z:abc-transcription Josh Larios <hades@elsewhere.org>, 2015.03.08
M:4/4
L:1/4
N:Listen to the recording for interesting ghosted notes, drones, and the actual ornaments I've fudged here.
N:NB: These aren't the chords Bethany Waickman's playing -- I like hers better.
G:Key: D
K:D
A/G/ |: "D"F>F "A"EE | "D"DD DF/A/ | {Bc}d c/d/ e d/e/ | "A"c/d/ B/c/ A d/A/ |  
"D"F>F "A"EE | "D"DD DF/A/ | {Bc}d c/d/ "A"e c | "D"d>c d/c/ A/G/ :|
|: "D"F f/d/ A/f/ a/f/ | "G"f/g/ g/f/ "(Em)"B/d/ c/B/ | "A"A e/c/ A/c/ e/g/ | "D"(3f/g/a/ f/d/ A/d/ A/F/ | 
"D"D f/d/ A/f/ a/f/ | "G"f/g/ g/f/ "(Em)"g/f/ e/c/ | "A"A A/c/ e/c/ e/c/ | "D"d d/c/ d/c/ A/G/ :|

